**harm	**harte	**timestamp	**phrase	**leadinstrument	**kern
*M4/4	*M4/4	*	*	*	*
*A:	*A:	*	*	*	*A:
1r;	N	0	.	r	1r;
=1	=1	=1	=1	=1	=1
*>A_intro	*>A_intro	*>A_intro	*>A_intro	*>A_intro	*>A_intro
1r	N	0.209	newline	synthesizer	1r
=2	=2	=2	=2	=2	=2
1r	N	3.379	.	synthesizer	1r
=3	=3	=3	=3	=3	=3
*>B_interlude	*>B_interlude	*>B_interlude	*>B_interlude	*>B_interlude	*>B_interlude
1I	A:maj	6.548	newline	synthesizer	1A 1cc# 1ee
=4	=4	=4	=4	=4	=4
1I	A:maj	9.729	.	synthesizer	1A 1cc# 1ee
=5	=5	=5	=5	=5	=5
1V	E:maj	12.91	newline	synthesizer	1E 1g# 1b
=6	=6	=6	=6	=6	=6
1V	E:maj	16.08	.	synthesizer	1E 1g# 1b
=7	=7	=7	=7	=7	=7
*>B_verse	*>B_verse	*>B_verse	*>B_verse	*>B_verse	*>B_verse
1I	A:maj	19.249	newline	voice	1A 1cc# 1ee
=8	=8	=8	=8	=8	=8
1I	A:maj	22.419	.	voice	1A 1cc# 1ee
=9	=9	=9	=9	=9	=9
1V	E:maj	25.588	newline	voice	1E 1g# 1b
=10	=10	=10	=10	=10	=10
1V	E:maj	28.746	.	voice	1E 1g# 1b
=11	=11	=11	=11	=11	=11
1I	A:maj	31.904	newline	voice	1A 1cc# 1ee
=12	=12	=12	=12	=12	=12
1I	A:maj	35.074	.	voice	1A 1cc# 1ee
=13	=13	=13	=13	=13	=13
1V	E:maj	38.243	newline	voice	1E 1g# 1b
=14	=14	=14	=14	=14	=14
1V	E:maj	41.424	.	voice	1E 1g# 1b
=15	=15	=15	=15	=15	=15
1I	A:maj	44.606	newline	voice	1A 1cc# 1ee
=16	=16	=16	=16	=16	=16
1I	A:maj	47.763	.	voice	1A 1cc# 1ee
=17	=17	=17	=17	=17	=17
1V	E:maj	50.921	newline	voice	1E 1g# 1b
=18	=18	=18	=18	=18	=18
1V	E:maj	54.102	.	voice	1E 1g# 1b
=19	=19	=19	=19	=19	=19
*>C_prechorus	*>C_prechorus	*>C_prechorus	*>C_prechorus	*>C_prechorus	*>C_prechorus
1IV	D:maj	57.284	newline	voice	1D 1f# 1a
=20	=20	=20	=20	=20	=20
1IV	D:maj	60.453	.	voice	1D 1f# 1a
=21	=21	=21	=21	=21	=21
2.I	A:maj	63.623	newline	voice	2A 2cc# 2ee
4IVc	D:maj/5	65.991	.	voice	4d 4f# 4A
=22	=22	=22	=22	=22	=22
2I	A:maj	66.781	.	voice	2A 2cc# 2ee
4ii	B:min	68.36	.	voice	4B 4dd 4ff#
4Ib	A:maj/3	69.149	.	voice	4a 4C# 4ee
=23	=23	=23	=23	=23	=23
1IV	D:maj	69.939	newline	voice	1D 1f# 1a
=24	=24	=24	=24	=24	=24
1IV	D:maj	73.108	.	voice	1D 1f# 1a
=25	=25	=25	=25	=25	=25
1V	E:maj	76.278	newline	voice	1E 1g# 1b
=26	=26	=26	=26	=26	=26
1V	E:maj	79.435	.	voice	1E 1g# 1b
=27	=27	=27	=27	=27	=27
2r	N	82.593	newline	voice	2r
4IV	D:maj(9)	84.207	.	voice	4D 4f# 4a
4V	E:maj	85.014	.	voice	4E 4g# 4b
=28	=28	=28	=28	=28	=28
*>D_chorus	*>D_chorus	*>D_chorus	*>D_chorus	*>D_chorus	*>D_chorus
1I	A:maj	85.821	newline	voice	1A 1cc# 1ee
=29	=29	=29	=29	=29	=29
1V	E:maj	88.967	.	voice	1E 1g# 1b
=30	=30	=30	=30	=30	=30
2ii	B:min	92.114	newline	voice	2B 2dd 2ff#
2Ib	A:maj/3	93.706	.	voice	2a 2C# 2ee
=31	=31	=31	=31	=31	=31
*M2/4	*M2/4	*M2/4	*M2/4	*M2/4	*M2/4
4IV	D:maj	95.299	.	voice	4D 4f# 4a
4vi	F#:min	96.096	.	voice	4F# 4a 4cc#
=32	=32	=32	=32	=32	=32
*M4/4	*M4/4	*M4/4	*M4/4	*M4/4	*M4/4
1V	E:maj	96.892	.	voice	1E 1g# 1b
=33	=33	=33	=33	=33	=33
*>E_solo	*>E_solo	*>E_solo	*>E_solo	*>E_solo	*>E_solo
1I	A:maj	100.078	newline	saxophone	1A 1cc# 1ee
=34	=34	=34	=34	=34	=34
1V	E:maj	103.236	.	saxophone	1E 1g# 1b
=35	=35	=35	=35	=35	=35
2ii	B:min	106.394	newline	saxophone	2B 2dd 2ff#
2Ib	A:maj/3	107.976	.	saxophone	2a 2C# 2ee
=36	=36	=36	=36	=36	=36
*M2/4	*M2/4	*M2/4	*M2/4	*M2/4	*M2/4
4IV	D:maj	109.558	.	saxophone	4D 4f# 4a
4vi	F#:min	110.35	.	saxophone	4F# 4a 4cc#
=37	=37	=37	=37	=37	=37
*M4/4	*M4/4	*M4/4	*M4/4	*M4/4	*M4/4
1V	E:maj	111.141	.	saxophone	1E 1g# 1b
=38	=38	=38	=38	=38	=38
1V	E:maj	114.305	.	saxophone	1E 1g# 1b
=39	=39	=39	=39	=39	=39
*>B_interlude	*>B_interlude	*>B_interlude	*>B_interlude	*>B_interlude	*>B_interlude
1I	A:maj	117.47	newline	synthesizer	1A 1cc# 1ee
=40	=40	=40	=40	=40	=40
1I	A:maj	120.651	.	synthesizer	1A 1cc# 1ee
=41	=41	=41	=41	=41	=41
1V	E:maj	123.832	newline	synthesizer	1E 1g# 1b
=42	=42	=42	=42	=42	=42
1V	E:maj	126.978	.	synthesizer	1E 1g# 1b
=43	=43	=43	=43	=43	=43
1I	A:maj	130.125	newline	saxophone	1A 1cc# 1ee
=44	=44	=44	=44	=44	=44
1I	A:maj	133.306	.	saxophone	1A 1cc# 1ee
=45	=45	=45	=45	=45	=45
1V	E:maj	136.487	newline	saxophone	1E 1g# 1b
=46	=46	=46	=46	=46	=46
1V	E:maj	139.656	.	saxophone	1E 1g# 1b
=47	=47	=47	=47	=47	=47
*>B_verse	*>B_verse	*>B_verse	*>B_verse	*>B_verse	*>B_verse
1I	A:maj	142.826	newline	voice	1A 1cc# 1ee
=48	=48	=48	=48	=48	=48
1I	A:maj	145.995	.	voice	1A 1cc# 1ee
=49	=49	=49	=49	=49	=49
1V	E:maj	149.165	newline	voice	1E 1g# 1b
=50	=50	=50	=50	=50	=50
1V	E:maj	152.335	.	voice	1E 1g# 1b
=51	=51	=51	=51	=51	=51
1I	A:maj	155.504	newline	voice	1A 1cc# 1ee
=52	=52	=52	=52	=52	=52
1I	A:maj(9)	158.674	.	voice	1A 1cc# 1ee
=53	=53	=53	=53	=53	=53
1V	E:maj	161.843	newline	voice	1E 1g# 1b
=54	=54	=54	=54	=54	=54
1V7	E:7	165.036	.	voice	1E 1g# 1b 1dd
=55	=55	=55	=55	=55	=55
*>C_prechorus	*>C_prechorus	*>C_prechorus	*>C_prechorus	*>C_prechorus	*>C_prechorus
1IV	D:maj	168.229	newline	voice	1D 1f# 1a
=56	=56	=56	=56	=56	=56
1IV	D:maj	171.375	.	voice	1D 1f# 1a
=57	=57	=57	=57	=57	=57
2.I	A:maj	174.521	newline	voice	2A 2cc# 2ee
4IVc	D:maj/5	176.898	.	voice	4d 4f# 4A
=58	=58	=58	=58	=58	=58
2I	A:maj	177.691	.	voice	2A 2cc# 2ee
4ii	B:min	179.275	.	voice	4B 4dd 4ff#
4Ib	A:maj/3	180.068	.	voice	4a 4C# 4ee
=59	=59	=59	=59	=59	=59
1IV	D:maj	180.86	newline	voice	1D 1f# 1a
=60	=60	=60	=60	=60	=60
1IV	D:maj	184.041	.	voice	1D 1f# 1a
=61	=61	=61	=61	=61	=61
1V	E:maj	187.222	newline	voice	1E 1g# 1b
=62	=62	=62	=62	=62	=62
1V	E:maj	190.38	.	voice	1E 1g# 1b
=63	=63	=63	=63	=63	=63
2r	N	193.538	newline	voice	2r
4IV	D:maj(9)	195.14	.	voice	4D 4f# 4a
4V	E:maj	195.942	.	voice	4E 4g# 4b
=64	=64	=64	=64	=64	=64
*>D_chorus	*>D_chorus	*>D_chorus	*>D_chorus	*>D_chorus	*>D_chorus
1I	A:maj	196.743	newline	voice	1A 1cc# 1ee
=65	=65	=65	=65	=65	=65
1V	E:maj	199.901	.	voice	1E 1g# 1b
=66	=66	=66	=66	=66	=66
2ii	B:min	203.059	newline	voice	2B 2dd 2ff#
2Ib	A:maj/3	204.647	.	voice	2a 2C# 2ee
=67	=67	=67	=67	=67	=67
*M2/4	*M2/4	*M2/4	*M2/4	*M2/4	*M2/4
4IV	D:maj	206.235	.	voice	4D 4f# 4a
4vi	F#:min	207.029	.	voice	4F# 4a 4cc#
=68	=68	=68	=68	=68	=68
*M4/4	*M4/4	*M4/4	*M4/4	*M4/4	*M4/4
1V	E:maj	207.823	.	voice	1E 1g# 1b
=69	=69	=69	=69	=69	=69
*>D_chorus	*>D_chorus	*>D_chorus	*>D_chorus	*>D_chorus	*>D_chorus
1I	A:maj	211	newline	voice	1A 1cc# 1ee
=70	=70	=70	=70	=70	=70
1V	E:maj	214.134	.	voice	1E 1g# 1b
=71	=71	=71	=71	=71	=71
2ii	B:min	217.269	newline	voice	2B 2dd 2ff#
2Ib	A:maj/3	218.857	.	voice	2a 2C# 2ee
=72	=72	=72	=72	=72	=72
*M2/4	*M2/4	*M2/4	*M2/4	*M2/4	*M2/4
4IV	D:maj	220.446	.	voice	4D 4f# 4a
4vi	F#:min	221.24	.	voice	4F# 4a 4cc#
=73	=73	=73	=73	=73	=73
*M4/4	*M4/4	*M4/4	*M4/4	*M4/4	*M4/4
1V	E:maj	222.034	.	voice	1E 1g# 1b
=74	=74	=74	=74	=74	=74
*>D_fadeout	*>D_fadeout	*>D_fadeout	*>D_fadeout	*>D_fadeout	*>D_fadeout
1I	A:maj	225.21	newline	saxophone	1A 1cc# 1ee
=75	=75	=75	=75	=75	=75
1V	E:maj	228.391	.	saxophone	1E 1g# 1b
=76	=76	=76	=76	=76	=76
2ii	B:min	231.573	newline	saxophone	2B 2dd 2ff#
2Ib	A:maj/3	232.474	.	saxophone	2a 2C# 2ee
=77	=77	=77	=77	=77	=77
*M2/4	*M2/4	*M2/4	*M2/4	*M2/4	*M2/4
4IV	D:maj	233.374	.	saxophone	4D 4f# 4a
4vi	F#:min	233.825	.	saxophone	4F# 4a 4cc#
=78	=78	=78	=78	=78	=78
*M4/4	*M4/4	*M4/4	*M4/4	*M4/4	*M4/4
1V	E:maj	234.275	.	saxophone	1E 1g# 1b
1r;	N	236.077	.	r	1r;
1r;	N	237.871	.	r	1r;
*-	*-	*-	*-	*-	*-
!!!OTL: Girl I m Gonna Miss You
!!!COC: Milli Vanilli
!!!BillboardChartDate: 1989/09/02
!!!BillboardPeak: 1
!!!BillboardWeeksOnChart: 21
!!!SampleTargetRank: 13
!!!SampleActualRank: 12
!!!SampleID#: 1039
!!!RDF**harmony: **recip + pitch class of root + harmonic quality
!!!RDF**harte: Chris Harte's syntax, used by MIREX
!!!RDF**phrase: newline = linebreak in original McGill transcription
!!!RDF**timestamp: McGill audio timestamp in seconds
!!!RDF**leadinstrument: original McGill primary instrumentation annotation
!!!RDT: 2017/01/12/
!!!ENC: Nathaniel Condit-Schultz
!!!EST: Awating manual error checking and editing.
